X:238
T:Guardian Hornpipe TS.238
M:C|
L:1/8
Q:1/2=90
S:Thomas Sands’ MS,1810,Lincolnshire
R:.hornpipe
N:Natural sign added in bar 10
O:England;Lincolnshire
Z:vmp.Ruairidh Greig, 2011
K:Bb
Bd|fbfd ecBA|BdBF dBFD|EGcd edcB|(3ABc (3BAG F2Bd|
fbfd ecBA|BdBF dBFD|EGce dfAc|B2B2B2:|
|:dB|c=Bcd edef|g^fga b=fdf|bagf edcB|ABcAF2F2|
fbfd ecBA|BdBF dBFD|EGce dfAc|B2B2B2:|

